X: 39263
T: Tailor And Ansty's, The
R: jig
M: 6/8
K: Adorian
EAA AGA|BAB dBG|gfe dBG|cBA GED|
EAA AGA|BAB dBG|gfe dBG|BAG A3:|
|:A^ce a3|A^ce dBG|A^ce a3|fe^c dBG|
A^ce a3|A^ce dBG|AB=c Bcd|cde dBG:|

